!!!COM: Josquin Des Pres
!!!OTL: Que Vous Madame
!!!ONB: Cantus firmus: "In Pace"
!!!YOR: From New Josquin Edition, Volume 27: Secular Works for Three Voices.
!!!YOR: Jaap van Benthem and Howard Meyer Brown (editors).
!!!YOR: Utrecht: Vereniging voor Nederlandse Musiekgeschiedenis, 1987; pp. 51-54.
**kern	**kern	**kern
*CF	*guida	*conseq
*k[]	*k[]	*k[]
*M4/2	*M4/2	*M4/2
=1-	=1-	=1-
0r	2.c	0r
.	4d	.
.	2e	.
.	[2f	.
=2	=2	=2
0r	2f]	1r
.	4e	.
.	4d	.
.	[1e	2.g
.	.	4a
=3	=3	=3
0E	1e]	2b
.	.	1cc
.	1e	.
.	.	4b
.	.	4a
=4	=4	=4
[0G	1e	1b
.	1d	1b
=5	=5	=5
0G]	0g	2.b
.	.	4cc
.	.	2dd
.	.	[2ee
=6	=6	=6
0A	1e	4ee]
.	.	4dd
.	.	1cc
.	1f#x	.
.	.	4b
.	.	4a
=7	=7	=7
0G	1.g	0b
.	2f	.
=8	=8	=8
0r	2e	1r
.	2d	.
.	1g	1b
=9	=9	=9
0r	2r	2a
.	1c	1cc
.	2d	4b
.	.	4a
=10	=10	=10
0r	2e	2g
.	2f	2a
.	2e	2g
.	[2f	[2a
=11	=11	=11
0r	4f]	4a]
.	4e	4g
.	4d	4f
.	4c	4e
.	2.B	1d
.	4c	.
=12	=12	=12
[0B	1d	1r
.	1G	1dd
=13	=13	=13
0B]	1r	1dd
.	[1g	1dd
=14	=14	=14
[0c	1g]	0ee
.	1g	.
=15	=15	=15
1c]	1e	1ee
[1d	1d	[1ff
=16	=16	=16
0d]	0f	2ff]
.	.	4ee
.	.	4dd
.	.	1ff
=17	=17	=17
1c	1g	1ee
1B	1G	[1dd
=18	=18	=18
0A	0c	2dd]
.	.	2cc
.	.	[1cc
=19	=19	=19
0G	0d	2cc]
.	.	4b
.	.	4a
.	.	1b
=20	=20	=20
0r	0c	1.cc
.	.	4b
.	.	4a
=21	=21	=21
0r	1r	2g
.	.	2a
.	1c	1e
=22	=22	=22
0r	1c	2r
.	.	2cc
.	1d	2b
.	.	[2a
=23	=23	=23
0r	0f	4a]
.	.	4g
.	.	4f
.	.	4e
.	.	1d
=24	=24	=24
[0c	[0e	1c
.	.	1cc
=25	=25	=25
1c]	1e]	1cc
1G	1d	[1b
=26	=26	=26
0A	1c	2b]
.	.	2a
.	1A	[1a
=27	=27	=27
0E	0B	1a]
.	.	1g#
=28	=28	=28
1r	1.A	0a
[1F	.	.
.	2B	.
=29	=29	=29
2F]	2c	1r
4E	1d	.
4D	.	.
1E	.	1g
.	2c#	.
=30	=30	=30
0D	1d	2f
.	.	1a
.	1r	.
.	.	4g
.	.	4f
=31	=31	=31
1r	1.c	0e
[1A	.	.
.	2d	.
=32	=32	=32
2A]	2e	1r
4G	1f	.
4F	.	.
1G	.	1b
.	2e	.
=33	=33	=33
0F	1f	2a
.	.	1cc
.	1r	.
.	.	4b
.	.	4a
=34	=34	=34
1r	1.e	0g
[1c	.	.
.	2f	.
=35	=35	=35
2c]	2g	1r
4B	1a	.
4A	.	.
1B	.	1dd
.	2g#	.
=36	=36	=36
0A	2.a	2cc
.	.	1ee
.	4g	.
.	2.e	.
.	.	4dd
.	4f	4cc
=37	=37	=37
1r	2.g	2.b
.	4f	4cc
1G	2d	2dd
.	[2e	[2g
=38	=38	=38
1G	2e]	2g]
.	4d	4f
.	4c	4e
[1G	2.B	1d
.	4A	.
=39	=39	=39
2G]	2B	2r
4F	2c	2g
4E	.	.
1F	1A	2a
.	.	2cc
=40	=40	=40
[0G	2G	2.b
.	2.g	.
.	.	4cc
.	.	2dd
.	4f	.
.	4e	[2ee
.	4d	.
=41	=41	=41
0G]	2g	4ee]
.	.	4dd
.	2c	1cc
.	1d	.
.	.	2b
=42	=42	=42
[0C	[0c	[0cc
=42a-	=42a-	=42a-
0C]	0c]	0cc]
=||	=||	=||
[0G	0g	0b
=44	=44	=44
0G]	1g	1b
.	1g	1b
=45	=45	=45
0r	1e	1.cc
.	1f	.
.	.	4b
.	.	4a
=46	=46	=46
0r	2.g	2.b
.	4f	4cc
.	2d	2dd
.	[2e	[2g
=47	=47	=47
1r	2e]	2g]
.	4d	4f
.	4c	4e
[1G	2B	2d
.	2c	[2e
=48	=48	=48
0G]	2B	2e]
.	1c	4d
.	.	4c
.	.	1d
.	2B	.
=49	=49	=49
1.A	0c	2.c
.	.	4d
.	.	2e
4G	.	2f
4F	.	.
=50	=50	=50
2.E	1r	1g
4D	.	.
[1F	1c	2r
.	.	[2a
=51	=51	=51
2F]	1A	2a]
2E	.	2g
1D	1B	2f
.	.	4e
.	.	4d
=52	=52	=52
[0C	[0c	0e
=53	=53	=53
0C]	0c]	1r
.	.	1g
=54	=54	=54
0r	1r	1a
.	1d	1b
=55	=55	=55
0r	1e	1.cc
.	1f	.
.	.	4b
.	.	4a
=56	=56	=56
0G	1.g	1b
.	.	1b
.	2f	.
=57	=57	=57
1A	1e	1cc
1B	1d	1dd
=58	=58	=58
1.c	0e	2g
.	.	4a
.	.	4b
.	.	[1cc
2B	.	.
=59	=59	=59
1A	2r	2cc]
.	2c	4b
.	.	4a
1G	2d	2b
.	[2e	[2g
=60	=60	=60
1E	4e]	4g]
.	4d	4f
.	4c	2g
.	4B	.
1F	1A	4a
.	.	4g
.	.	4f
.	.	4e
=61	=61	=61
0G	[0B	[0d
=-	=-	=-
0G	0B]	0d]
==	==	==
*-	*-	*-
!!!CDT: ~1440///-1521//
!!!OCY: ?Italia
!!!ODT: ?
!!!AFR: cantus firmus chanson
!!!AST: polyphony
!!!AMT: simple duple
!!!AIN: vox
!!!YEP: David Huron and Denis Collins
!!!YEN: Canada
!!!EEV: 1.0
!!!RDT: 1995 April 29
!!!YED: 1995 August 31
